!!!OTL: Die zehnte Tochter Bol dort do schteangait a hoachs Geschloss,
!!!ARE: Europa, Suedosteuropa, Jugoslavija, Gottschee, Koprivnik / Nesseltal
!!!YOR: 5, S. 58
!!    1937 aufgezeichnet
!!!SCT: Q0094
!!!YEM: Copyright 1995, estate of Helmut Schaffrath.
**kern
*ICvox
*Ivox
*M3/4
*k[f#]
*G:
{8g
8b
=1
2dd
4b
=2
4a
4a
8cc
8a
=3
2g
8g
8b
=4
2a}
{8f#
8a
=5
2cc
4a
=6
2g
8a
8g
=7
2f#
4a
=8
2g}
{8f#
8a
=9
2cc
4a
=10
2g
8a
8g
=11
2f#
4a
=12
2g}
==
!!!AGN: Ballade, mythologisch, Vertreibung
!! Einige der folgenden Zeilen werden dreimal wiederholt. Verzierungen
!!    (Vorschlaege) .
!!!ONB: ESAC (Essen Associative Code) Database: BALLADE
!!!AMT: simple triple
!!!AIN: vox
!!!EED: Helmut Schaffrath
!!!EEV: 1.0
*-
